X:125
T:Dance,A. JGi.125
T:?
M:6/8
L:1/8
Q:3/8=120
S:Joshua Gibbons MS,1823,Tealby,Lincs.
R:jig
O:Tealby,Lincolnshire
N:Similar to the “Kesh” or “Kincora” Jig..R.G.
Z:VMP/R.Greig, 2009
K:D
A|d2d fed|d2cc2c|dcB ABA|G3F2A|d2d fed|d2ee2e|fdc BA^G|A3-Az:|
A|c2de2f|g2ee2f|g2ef2d|cdc ABc|FGAA2A|B2AA2A|
FGAA2A|B2AA2A|g2ge2e|f2fd2d|ege cAc|d3-dz||

